X:1
T:Si pour aymer
T:Si pour aymer
T:Thomas Crecquillon
C:Thomas Crecquillon
%%score [ 1 2 3 4 ]
L:1/8
Q:1/4=76
M:2/2
K:F
V:1 treble nm="Superius" snm="S"
V:2 treble nm="Altus" snm="A"
V:3 treble-8 nm="Tenor" snm="T"
V:4 bass nm="Bassus" snm="B"
V:1
 z2 F2 A2 A2 | G3 A Bc d2- | dc c4 B2 | c8 | z4 z2 f2 | edcB A2 G2 | F2 z F G2 A2 | B2 A2 G2 B2 | %8
w: Si pour ay-|mer [et de- * *|* * * si-|rer,]|je|con- gnois mon faict em- pi-|rer, cest es- tran-|g'et fa- ce de|
 A2 G3 F F2- | F2 E2 F4 | z2 F2 A3 B | c2 d3 c c2- | c2 B2 c4- | c4 z2 c2 | f3 e d2 c2 | e2 d4 cB | %16
w: fai- * * *|* * re,|si lay- mer|qui te _ peult|_ ti- rer,|_ te|fai- soit o- res|re- ti- * *|
 A4 z4 | c2 df edcB | A2 G2 E4 | z8 | c2 cB AcBA | G2 B3 A A2- | A2 G2 A c2 A- | AFcc d f2 e | %24
w: rer,|cest bien loing de te sa- tis-|fai- * re,||mais pour te di- re mon af-|fai- * * *|* * re, et à|_ quoy je suis cous- tu- *|
 f4 e2 d2- | dc c4 B2 | c8 | z2 f2 fedc | B2 d2 c3 B | A4 z4 |: F4 B2 c2 | d2 c2 B2 A2 | %32
w: ||mier,|quant je voy qu'on me|veult def- fai- *|re,|je veulx com-|men- chier le pre-|
 G2 F4 E2 |1 F4 z4 :|2 G2 F4 E2 || F8 |] %36
w: |mier,|(pre)- * *|mier.|
V:2
 C4 F2 F2 | E4 D3 E | F G2 F G4 | E2 E2 A2 G2- | GFE D2 C2 B, | C4 z2 D2 | D2 D2 E2 F2 | %7
w: Si pour ay-|mer [et- de-|* * * si-|rer,] je con- gnois|_ mon faict em- * pi-|rer, cest|es- tran- g'et fa-|
 G2 F2 D3 E | F2 E2 D4 | C8 | z2 C2 E2 F2 | G2 A4 A2 | G2 F2 G4 | A2 A2 A2 A2 | F2 F2 F2 F2 | %15
w: ce de fai- *||re,|si lay- mer|qui te peult|_ ti- rer,|te fai- soit o-|res re- ti- rer,|
 G3 F/E/ D2 E2 | F4 z4 | z2 F2 GBAG | FE D2 CGGF | EGFE D F2 E | F4 z4 | G3 F E2 F2 | D3 E F2 F2 | %23
w: re- * * * ti-|rer,|cest bien loing de te|sa- tis- fai- re, mais pour te|di- re mon af- fai- * *|re,|mon af fai- *|* * re, et|
 D2 C2 F2 G2 | A6 F2 | A4 G4 | G2 GF EDCB, | A,2 A,2 B,CDE | F G2 F2 E/D/ E2 | F C2 F2 G2 A- |: %30
w: à quoy je suis|cous- tu-||mier, quant je voy qu'on me veult|def- fai- * * * *||re, je veulx com- men-|
 AG FE D2 C2 | G6 F2 | _E2 D2 C4 |1 z C2 F2 G2 A :|2 _E2 D2 C4- || C8 |] %36
w: * * * * * chier|le pre-|* * mier,|je veulx com- men-|(pre)- * mier|_|
V:3
 z2 F2 c2 c2 | c3 B G2 B2 | c4 d4 | c2 z g f2 e2 | dcB A2 G2 F | G2 AB cA B2 | A2 A2 B2 c2 | %7
w: Si pour ay-|mer [et de- *|* si-|rer,] je con- gnois|mon _ faict em- * pi-|rer, cest es- tran- g'et fa-|ce de fai- *|
 d2 c4 B2 | c4 F2 A2 | G4 z2 F2 | A3 B c2 d2 | e2 f2 e3 d | e2 f4 e2 | f2 c2 f3 e | d2 c2 B2 c2- | %15
w: ||re, si|lay- * * mer|qui te peult _|_ ti- *|rer, te fai- soit|o- res re- *|
 c2 BA B4 | ccdf edcB | A3 F cBcd- | d c2 B c4 | z8 | z2 f2 fedf | ec dB c3 d | B4 A4 | z4 z2 c2 | %24
w: * * * ti-|rer, cest bien loing de te sa- tis|fai- re, de te sa- tis-|* fai- * re,||mais pour te di- re|mon af- fai- * * *|* re,|et|
 A2 F2 c2 d2 | e2 f2 d4 | c4 z4 | f2 fe dcBc | dc BA G4 | F4 z4 |: z4 z2 F2 | B2 c2 d3 c | %32
w: à quoy je suis|cous- * tu-|mier,|quant je voy qu'on me veult def-|fai- * * * *|re,|je|veulx com- men- chier|
 B2 A2 G4 |1 F4 z4 :|2 B2 A2 G4 || F8 |] %36
w: le _ pre-|mier,|le _ pre-|mier.|
V:4
 F,4 F,2 F,2 | C,2 C2 B,2 G,2 | A,4 G,4 | C,4 z2 C2 | B,A,G,F, E,2 D,2 | C,2 F,4 G,2 | %6
w: Si pour ay-|mer et de- *|* si-|rer, je|con- gnois mon faict em- pi-|rer, cest es-|
 D,2 D,2 G,2 F,2 | B,2 F,2 G,4 | F,2 C,2 D,2 F,2 | C,4 F,4- | F,4 z2 F,2 | E,2 D,2 A,3 B, | %12
w: tran- g'et fa- ce|de fai- *||* re,|_ si|lay- mer qui te|
 C2 D2 C4 | F,4 z2 F,2 | F,2 F,2 B,2 A,2 | G,4 G,4 | F,2 z F, G,B,A,G, | F,E, D,2 C,G,A,B, | %18
w: peult _ ti-|rer, te|fai- soit o- res|re- ti-|rer, cest bien loing de te|sa- tis- fai- re, de te sa-|
 F,2 G,2 C,2 C2 | CB,A,C B,A, G,2 | F,2 F,2 F,C,G,F, | C,2 G,2 A,2 F,2 | G,4 F,4 | z2 F,2 D,2 C,2 | %24
w: tis fai- re, mais|pour te di- re mon af- fai-|re, mais pour te di- re|mon af- fai- *|* re,|et à quoy|
 F,3 G, A,2 B,2 | A,2 F,2 G,4 | z2 C2 CB,A,G, | F,E, D,C, B,,2 B,,2 | B,,4 C,4 | z2 F,2 B,2 C2 |: %30
w: je _ _ suis|cous- tu- mier,|quant je voy qu'on me|veult _ _ _ _ def-|fai- re,|le veulx com-|
 D3 C B,2 A,2 | G,2 C,2 G,2 D,2 | _E,2 F,2 C,4 |1 z2 F,2 B,2 C2 :|2 _E,2 F,2 C,4 || F,8 |] %36
w: men- chier le pre-|mier, com- men- chier|le pre- mier,|je veulx com-|le _ pre-|mier.|

